X:2700
T:Carrasquina
C:Tradicional
S:Música Tradicional Asturiana, (C) Tello & Tito. Asturies, 2001.
S:http://pagina.de/MusTradAst <telloytito@asturies.org>
O:Bual
A:Asturies
Z:ByD IDEA
M:3/8
L:1/8
Q:1/8=192
K:C
C/D/|: EEE|EDC|E2 D/C/-|B, z B,/C/|DDD|DCB,|D2 C/B,/-|A, z C/D/ :|
|EE C/D/|EE C/D/|E3/2 E/ D/C/|B,2 B,/C/|DD B,/C/|DDB,|DCB,|A, z2|


